X: 1
T: I'm Shipping Up To Boston
C: Dropkick Murphys
R: jig
Z: 2020 John Chambers <jc:trillian.mit.edu>
M: 12/8
L: 1/8
P: Play: I AAA BB AA BB C AA BB C AD
K: Em
"^I"[| "Em"E2E z3 z6 | "Em"E2E z3 [e4_B4] z2 |\
      "Em"E2D "-"E2D "-"EFG "(D)"FED |  "G"BAG "D/F#"AGF "/D"GFD "Em"E2D ||
"^A"|:"Em"E2D "-"E2D "-"EFG "(D)"FED |"Em"E2D        E2D     EFG     B2z |\
      "Em"E2D "-"E2D "-"EFG "(D)"FED | "G"BAG  "D/F#"AGF "/D"GFD "Em"E2D :|
"^B"|:\
"Em"B2A B2A B^cd "(A)"cBA | "D"B2A B2A B^cd "(Bm)"f2z | "Em"B2A B2A B^cd "(A)"cBA | "D"fed "/F#"ed^c "/D"dcA "Em"B2A :|
"^C"|: "D"[f2d2].[fd] [f2d2].[fd] [f3d3] [d3A3] | "C"[g3e3] f3 "G"d3- d2A |\
    [1 "D"[f2d2].[fd] [f2d2].[fd] [f3d3] [d3A3] | "C"[g3e3] a3 "G"d3- d2A :|\
    [2 "D"[f2d2].[fd] [f3-d3-] [f3-d3-] [f2d][fd] | "C"[g3e3] [g3e3] "G"[g3d3] [g3d3] |]
%%text Coda:
"^D"[| "Em"HE12 | E2E E2E E2E EEE | "Em"[B2G2E2][BGE] z6 |] y12 y12 y12 y12 y12 y12 y12 y12
%%text https://www.youtube.com/watch?v=NsxcZol_FEE https://www.youtube.com/watch?v=HXm8JdC4k4c

%%sep 1 1 500
%%sep 1 1 500

